X:343
T:Spaniard
M:6/8
L:1/8
K:G
G3D3|B3G3|B2B c2A|B3G3|
d3c3|B3A3|G2G A2F|G3G3:|
b3bag|a2f g2e|d3dcB|c2A B2G|
b3bag|a2f g2e|d3dcB|c2A G3:|
c2A A2A|B2G G2G|F2G A2B|c2A F2D|
c2A A2A|B2G G2z|FED DEF|GAB A2G:|
